icons/brush-fill.svg

<svg xmlns="http://www.w3.org/2000/svg" width="24" height="24" fill="none"><g clip-path="url(#a)"><g><path fill="#121212" d="M13.289 6.21597L18.228 2.37497C18.4203 2.22559 18.6605 2.1515 18.9035 2.1666C19.1465 2.18169 19.3757 2.28494 19.548 2.45697L22.543 5.45097C22.7153 5.62335 22.8187 5.85271 22.8338 6.09596C22.8489 6.33922 22.7747 6.57961 22.625 6.77197L18.785 11.71C19.0558 12.8144 19.072 13.9659 18.8325 15.0775C18.5931 16.1891 18.1041 17.2317 17.4027 18.1267C16.7012 19.0217 15.8056 19.7455 14.7833 20.2436C13.7611 20.7417 12.6391 21.001 11.502 21.002C8 21.002 3.5 19.5 1 18C4.98 15 4.047 13.19 4.5 11.5C5.558 7.54997 9.342 5.24297 13.289 6.21597ZM16.702 8.09497C16.767 8.15797 16.832 8.22297 16.895 8.28897L18.03 9.42297L20.505 6.24097L18.759 4.49497L15.577 6.96997L16.702 8.09497Z"/></g></g><defs><clipPath id="a"><rect width="24" height="24" fill="white"/></clipPath></defs></svg>

<svg width="24" height="24" fill="none" xmlns="http://www.w3.org/2000/svg"><g clip-path="url(#a)"><path d="m13.289 6.216 4.939-3.841a1 1 0 0 1 1.32.082l2.995 2.994a1 1 0 0 1 .082 1.321l-3.84 4.938a7.504 7.504 0 0 1-7.283 9.292C8 21.002 3.5 19.5 1 18c3.98-3 3.047-4.81 3.5-6.5 1.058-3.95 4.842-6.257 8.789-5.284Zm3.413 1.879c.065.063.13.128.193.194l1.135 1.134 2.475-3.182-1.746-1.746-3.182 2.475 1.125 1.125Z" /></g><defs><clipPath id="a"><path fill="#fff" d="M0 0h24v24H0z"/></clipPath></defs></svg>
